packages/core/src/svgs/ete.svg

<svg width="24" height="24" viewBox="0 0 24 24" fill="none" xmlns="http://www.w3.org/2000/svg">
<g clip-path="url(#clip0_31_10037)">
<path d="M0 0H24V24H0V0Z" fill="#F0F3FA"/>
<path d="M7.95432 11.7255C7.60289 11.8841 6.89146 12.2012 6.85718 12.2098L11.7857 3.85693V4.72265L7.62004 11.7726L8.04861 11.6012L11.7857 4.93693V11.5284L10.3843 12.0512L7.91575 11.8798L7.95432 11.7298V11.7255Z" fill="#141414"/>
<path d="M11.7857 10.123L7.90289 11.8802L11.7857 14.2116V13.8688L8.48575 11.923L11.7857 10.4488V10.123ZM11.7857 10.6888L8.97432 11.953L11.7857 13.6073V13.2516L9.71146 12.0088L11.7857 11.0745V10.6888ZM11.7857 12.9516V11.3273L10.2343 12.013L11.7857 12.9559V12.9516ZM6.85718 12.3259L11.7857 15.2873V14.4302L7.66289 11.9445L6.85718 12.3259Z" fill="#0FABFF"/>
<path d="M16.0458 11.7341C16.3972 11.8884 17.1086 12.2055 17.1429 12.2141L12.2144 3.85693V4.72265L16.3801 11.7769L15.9515 11.6055L12.2144 4.93693V11.5284L13.6158 12.0555L16.0844 11.8841L16.0458 11.7341Z" fill="#393939"/>
<path d="M12.2144 10.123L16.0972 11.8716L12.2144 14.1945V13.8516L15.5144 11.9145L12.2144 10.4488V10.123ZM12.2144 10.6845L15.0258 11.9445L12.2144 13.5902V13.2388L14.2886 12.0002L12.2144 11.0659V10.6802V10.6845ZM12.2144 12.943V11.323L13.7658 12.0088L12.2144 12.943ZM17.1429 12.313L12.2144 15.2702V14.413L16.3372 11.9402L17.1429 12.313Z" fill="#10ACF9"/>
<path d="M11.97 16.1999C11.91 16.1999 8.53718 14.2585 6.85718 13.2856L11.97 20.1428L17.1429 13.2856C15.4295 14.2763 13.7051 15.2478 11.97 16.1999Z" fill="#8C8C8C"/>
</g>
<defs>
<clipPath id="clip0_31_10037">
<rect width="24" height="24" fill="white"/>
</clipPath>
</defs>
</svg>

<svg xmlns="http://www.w3.org/2000/svg" width="24" height="24" fill="none" viewBox="0 0 24 24"><g clip-path="url(#a)"><path fill="#F0F3FA" d="M0 0h24v24H0z"/><path fill="#141414" d="M7.954 11.726c-.351.158-1.063.475-1.097.484l4.929-8.353v.866l-4.166 7.05.429-.172 3.737-6.664v6.591l-1.402.523-2.468-.171.038-.15z"/><path fill="#0FABFF" d="M11.786 10.123 7.903 11.88l3.883 2.332v-.343l-3.3-1.946 3.3-1.474zm0 .566-2.812 1.264 2.812 1.654v-.355L9.71 12.009l2.075-.934zm0 2.263v-1.625l-1.552.686 1.552.943zm-4.929-.626 4.929 2.961v-.857l-4.123-2.485z"/><path fill="#393939" d="M16.046 11.734c.351.154 1.063.472 1.097.48l-4.929-8.357v.866l4.166 7.054-.428-.171-3.738-6.67v6.592l1.402.527 2.468-.17z"/><path fill="#10ACF9" d="m12.214 10.123 3.883 1.749-3.883 2.323v-.343l3.3-1.937-3.3-1.466zm0 .562 2.812 1.26-2.812 1.645v-.351L14.29 12l-2.075-.934v-.386zm0 2.258v-1.62l1.552.686zm4.929-.63-4.929 2.957v-.857l4.123-2.473z"/><path fill="#8C8C8C" d="M11.97 16.2c-.06 0-3.433-1.941-5.113-2.914l5.113 6.857 5.173-6.857q-2.57 1.486-5.173 2.914"/></g><defs><clipPath id="a"><path fill="#fff" d="M0 0h24v24H0z"/></clipPath></defs></svg>
